X: 12398
T: Fante Vals
R: waltz
M: 3/4
K: Dmajor
D2 DF Ad|dc cA B2|Ac eg ec|d2 AG FE|
D2 DF Ad|dc cA B2|Ac eg ec|d2 d4:|
|:a2 a2 fa|d'2 d'a fa|b2 b2 gb|d'2 d'b gb|
a2 a2 fa|d'2 d'a fa|ef ge ce|e2 d4:|

